icons/icn_vent_cerrar.svg

<svg width="24" xmlns="http://www.w3.org/2000/svg" height="24" id="screenshot-a685e3d8-c171-8090-8006-8f78bd69e2c4" viewBox="0 0 24 24" xmlns:xlink="http://www.w3.org/1999/xlink" fill="none" version="1.1"><g id="shape-a685e3d8-c171-8090-8006-8f78bd69e2c4"><g class="frame-container-wrapper"><g class="frame-container-blur"><g class="frame-container-shadows"><g fill="none"><g class="fills" id="fills-a685e3d8-c171-8090-8006-8f78bd69e2c4"><rect rx="0" ry="0" x="0" y="0" width="24" height="24.000000000000455" transform="matrix(1, 0, 0, 1, 0, 0)" class="frame-background"/></g><g class="frame-children"><g id="shape-a685e3d8-c171-8090-8006-8f7862c53d77" rx="0" ry="0"><g id="shape-a685e3d8-c171-8090-8006-8f78206d4615" style="opacity: 1;"><g class="fills" id="fills-a685e3d8-c171-8090-8006-8f78206d4615"><path d="M6.511523246765137,3.1673583984375C4.668993949890137,3.1673583984375,3.160205125808716,4.668701171875,3.160205125808716,6.5113525390625L3.160205125808716,17.4808349609375C3.160205125808716,19.3240966796875,4.668993949890137,20.832275390625,6.511523246765137,20.832275390625L17.495899200439453,20.832275390625C19.338672637939453,20.832275390625,20.839893341064453,19.3240966796875,20.839893341064453,17.4808349609375L20.839893341064453,6.5113525390625C20.839893341064453,4.668701171875,19.338672637939453,3.1673583984375,17.495899200439453,3.1673583984375ZM6.511523246765137,4.6290283203125L17.495899200439453,4.6290283203125C18.551563262939453,4.6290283203125,19.378223419189453,5.455810546875,19.378223419189453,6.5113525390625L19.378223419189453,17.4808349609375C19.378223419189453,18.5364990234375,18.551563262939453,19.36328125,17.495899200439453,19.36328125L6.511523246765137,19.36328125C5.456103324890137,19.36328125,4.629199028015137,18.5364990234375,4.629199028015137,17.4808349609375L4.629199028015137,6.5113525390625C4.629199028015137,5.455810546875,5.456103324890137,4.6290283203125,6.511523246765137,4.6290283203125Z" style="display: inline; stroke-linecap: round; stroke-linejoin: round; fill: rgb(0, 0, 0); fill-opacity: 1;"/></g></g><g id="shape-a685e3d8-c171-8090-8006-8f78206da88a" style="opacity: 1;"><g class="fills" id="fills-a685e3d8-c171-8090-8006-8f78206da88a"><path d="M7.737109184265137,7.00732421875C7.556200981140137,7.036865234375,7.388232231140137,7.1231689453125,7.259081840515137,7.2537841796875C7.095751762390137,7.4166259765625,7.004443168640137,7.6375732421875,7.004443168640137,7.8677978515625C7.004443168640137,8.0985107421875,7.095751762390137,8.3194580078125,7.259081840515137,8.482421875L10.776415824890137,11.9998779296875L7.259081840515137,15.517333984375C6.922167778015137,15.85595703125,6.922167778015137,16.403076171875,7.259081840515137,16.7418212890625C7.421435356140137,16.9051513671875,7.642870903015137,16.9964599609375,7.873583793640137,16.9964599609375C8.103320121765137,16.9964599609375,8.324755668640137,16.9051513671875,8.487109184265137,16.7418212890625L12.004687309265137,13.2242431640625L15.522265434265137,16.7418212890625C15.861620903015137,17.07861328125,16.408985137939453,17.07861328125,16.747608184814453,16.7418212890625C17.084278106689453,16.403076171875,17.084278106689453,15.85595703125,16.747608184814453,15.517333984375L13.229052543640137,11.9998779296875L16.747608184814453,8.482421875C16.909961700439453,8.3194580078125,17.002246856689453,8.0985107421875,17.002246856689453,7.8677978515625C17.002246856689453,7.6375732421875,16.909961700439453,7.4166259765625,16.747608184814453,7.2537841796875C16.408985137939453,6.9169921875,15.861620903015137,6.9169921875,15.522265434265137,7.2537841796875L12.004687309265137,10.771240234375L8.487109184265137,7.2537841796875C8.291552543640137,7.0562744140625,8.012011528015137,6.9644775390625,7.737109184265137,7.00732421875Z" style="display: inline; stroke-width: 0.388056; stroke-linecap: round; stroke-linejoin: bevel; stroke-dasharray: none; fill: rgb(0, 0, 0); fill-opacity: 1;"/></g></g></g></g></g></g></g></g></g></svg>

<svg fill="none" viewBox="0 0 24 24"><g class="frame-container-wrapper"><g class="frame-container-blur"><g class="frame-container-shadows"><g class="fills"><rect width="24" height="24" class="frame-background" rx="0" ry="0"/></g><g class="frame-children"><path fill="#000" d="M6.5115 3.1674c-1.8425 0-3.3513 1.5013-3.3513 3.344v10.9694c0 1.8433 1.5088 3.3515 3.3513 3.3515H17.496c1.8428 0 3.344-1.5082 3.344-3.3515V6.5114c0-1.8427-1.5012-3.344-3.344-3.344Zm0 1.4616H17.496c1.0557 0 1.8823.8268 1.8823 1.8824v10.9694c0 1.0557-.8266 1.8825-1.8823 1.8825H6.5115c-1.0554 0-1.8823-.8268-1.8823-1.8825V6.5114c0-1.0556.8269-1.8824 1.8823-1.8824Z" class="fills"/><path fill="#000" d="M7.7371 7.0073a.8704.8704 0 0 0-.478.2465.8667.8667 0 0 0-.2547.614c0 .2307.0914.4517.2547.6146L10.7764 12l-3.5173 3.5174a.868.868 0 0 0 0 1.2245.8662.8662 0 0 0 .6145.2547.8656.8656 0 0 0 .6135-.2547l3.5176-3.5176 3.5176 3.5176c.3393.3368.8867.3368 1.2253 0a.8685.8685 0 0 0 0-1.2245L13.2291 12l3.5185-3.5175a.8716.8716 0 0 0 .2546-.6146.8708.8708 0 0 0-.2546-.614c-.3386-.3368-.886-.3368-1.2253 0l-3.5176 3.5174L8.487 7.2538a.8682.8682 0 0 0-.75-.2465Z" class="fills"/></g></g></g></g></svg>
